H3/img/coffee.svg

<svg viewBox="0 0 42 53" xmlns="http://www.w3.org/2000/svg"><g fill="#1a9ed4"><path d="m34.5 26h-33a1.5 1.5 0 0 0 -1.47 1.8l4.529 22.2h-3.059a1.5 1.5 0 0 0 0 3h30a1.5 1.5 0 0 0 0-3h-3.3l1.932-9h4.368a7.5 7.5 0 0 0 0-15zm-26.88 24-4.283-21h26.307l-2.188 10.191v.013l-2.321 10.796zm26.88-12h-3.72l1.932-9h1.788a4.5 4.5 0 0 1 0 9z"/><path d="m16.889 13a3.5 3.5 0 0 1 0 7 1.5 1.5 0 1 0 0 3 6.5 6.5 0 0 0 0-13 3.5 3.5 0 0 1 0-7 1.5 1.5 0 0 0 0-3 6.5 6.5 0 0 0 0 13z"/></g></svg>

<svg xmlns="http://www.w3.org/2000/svg" viewBox="0 0 42 53"><defs><style>.a{fill:#1a9ed4;}</style></defs><path class="a" d="M34.5,26H1.5A1.5,1.5,0,0,0,.03,27.8L4.559,50H1.5a1.5,1.5,0,0,0,0,3h30a1.5,1.5,0,0,0,0-3H28.2l1.932-9H34.5a7.5,7.5,0,0,0,0-15ZM7.62,50,3.337,29H29.644L27.456,39.191l0,.013L25.135,50ZM34.5,38H30.78l1.932-9H34.5a4.5,4.5,0,0,1,0,9Z"/><path class="a" d="M16.889,13a3.5,3.5,0,0,1,0,7,1.5,1.5,0,1,0,0,3,6.5,6.5,0,0,0,0-13,3.5,3.5,0,0,1,0-7,1.5,1.5,0,0,0,0-3,6.5,6.5,0,0,0,0,13Z"/></svg>
